icons/label-percent-outline.svg

<svg xmlns="http://www.w3.org/2000/svg" width="24" height="24" viewBox="0 0 24 24">
  <path d="M14.1715729,4 C14.9672223,4 15.7302841,4.31607052 16.2928932,4.87867966 L16.2928932,4.87867966 L21.2928932,9.87867966 C22.4644661,11.0502525 22.4644661,12.9497475 21.2928932,14.1213203 L21.2928932,14.1213203 L16.2928932,19.1213203 C15.7302841,19.6839295 14.9672223,20 14.1715729,20 L14.1715729,20 L5,20 C3.34314575,20 2,18.6568542 2,17 L2,17 L2,7 C2,5.34314575 3.34314575,4 5,4 L5,4 Z M14.1715729,6 L5,6 C4.44771525,6 4,6.44771525 4,7 L4,7 L4,17 C4,17.5522847 4.44771525,18 5,18 L5,18 L14.1715729,18 C14.4367894,18 14.6911433,17.8946432 14.8786797,17.7071068 L14.8786797,17.7071068 L19.8786797,12.7071068 C20.2692039,12.3165825 20.2692039,11.6834175 19.8786797,11.2928932 L19.8786797,11.2928932 L14.8786797,6.29289322 C14.6911433,6.10535684 14.4367894,6 14.1715729,6 L14.1715729,6 Z M13.7071068,14.2928932 C14.0976311,14.6834175 14.0976311,15.3165825 13.7071068,15.7071068 C13.3165825,16.0976311 12.6834175,16.0976311 12.2928932,15.7071068 C11.9023689,15.3165825 11.9023689,14.6834175 12.2928932,14.2928932 C12.6834175,13.9023689 13.3165825,13.9023689 13.7071068,14.2928932 Z M13.7071068,8.29289322 C14.0675907,8.65337718 14.0953203,9.22060824 13.7902954,9.61289944 L13.7071068,9.70710678 L7.70710678,15.7071068 C7.31658249,16.0976311 6.68341751,16.0976311 6.29289322,15.7071068 C5.93240926,15.3466228 5.90467972,14.7793918 6.20970461,14.3871006 L6.29289322,14.2928932 L12.2928932,8.29289322 C12.6834175,7.90236893 13.3165825,7.90236893 13.7071068,8.29289322 Z M7.70710678,8.29289322 C8.09763107,8.68341751 8.09763107,9.31658249 7.70710678,9.70710678 C7.31658249,10.0976311 6.68341751,10.0976311 6.29289322,9.70710678 C5.90236893,9.31658249 5.90236893,8.68341751 6.29289322,8.29289322 C6.68341751,7.90236893 7.31658249,7.90236893 7.70710678,8.29289322 Z"/>
</svg>

<svg xmlns="http://www.w3.org/2000/svg" viewBox="0 0 24 24">
  <path d="M14.17 4a3 3 0 0 1 2.12.88l5 5a3 3 0 0 1 0 4.24l-5 5a3 3 0 0 1-2.12.88H5a3 3 0 0 1-3-3V7a3 3 0 0 1 3-3zm0 2H5a1 1 0 0 0-1 1v10a1 1 0 0 0 1 1h9.17a1 1 0 0 0 .7-.3l5-5a1 1 0 0 0 0-1.4l-5-5a1 1 0 0 0-.7-.3zm-.46 8.3a1 1 0 1 1-1.42 1.4 1 1 0 0 1 1.42-1.4zm0-6a1 1 0 0 1 .08 1.31l-.08.1-6 6a1 1 0 0 1-1.5-1.32l.08-.1 6-6a1 1 0 0 1 1.42 0zm-6 0a1 1 0 1 1-1.42 1.4 1 1 0 0 1 1.42-1.4z"/>
</svg>
